X: 1274
T: Bill McGlashan's Highland Schottische
B: australian traditional tunes wiki
M:4/4
L:1/8
R: Schottische
Q: 1/4=100
K:D
V:1 
|:"D"D2D>F "A7"E>C "D"D>F|E>C D>F "A7"E>C B,>A,|"D"D2D>F E>C D>F|"A7"B>G E>C"D"D2D2:|
"D"A2A>F D>FA2|"A7"B2B>G E>G B>G|"D"A2A>F D>F A>F|"A7"G>E C>E"D"D2D2|
F2F>A"A7"G2G>E|"D"A2A>F "A7"(3GAG F>E|"D"F2F>A "A7"G2G>E|A>A B>c"D"d2d2||
% abcbook-tune_id 6342d53ab2e73cacfd0e11f1


% abcbook-boost 0
% abcbook-tablature 
% abcbook-transpose 
% abcbook-lastupdated 1665324357038
% abcbook-soundfonts 
% abcbook-repeats 1
% NFF Book 2008

